shelter/assets/icons/help/icon-pet-food.svg

<svg width="60" height="60" viewBox="0 0 60 60" fill="none" xmlns="http://www.w3.org/2000/svg">
<path d="M52.8978 25.4978L47.1429 9.7473V1.42852C47.1429 0.639609 46.5032 0 45.7144 0H14.2858C13.4969 0 12.8573 0.639727 12.8573 1.42852V9.74719L7.10214 25.4978C6.41927 27.3636 6.07039 29.335 6.07147 31.3219V55.0765C6.07147 57.7913 8.28011 60 10.995 60H49.005C51.7199 60 53.9285 57.7913 53.9285 55.0765V31.3219C53.9285 29.329 53.5817 27.3694 52.8978 25.4978ZM15.7142 2.85715H44.2857V8.57145H15.7142V2.85715ZM51.0715 50.1321H30.9077C30.1188 50.1321 29.4792 50.7718 29.4792 51.5606C29.4792 52.3495 30.1189 52.9891 30.9077 52.9891H51.0715V55.0763C51.0715 56.2157 50.1445 57.1427 49.005 57.1427H10.995C9.85558 57.1427 8.92862 56.2158 8.92862 55.0763V31.3219C8.92774 29.6695 9.21788 28.03 9.78573 26.4783L15.2848 11.4286H44.7152L50.2142 26.4783C50.7821 28.03 51.0722 29.6695 51.0714 31.3219L51.0715 50.1321Z" fill="#F1CDB3"/>
<path d="M35.6169 33.805C35.1505 30.8772 32.6078 28.632 29.5505 28.632C26.4932 28.632 23.9504 30.8772 23.484 33.805C21.067 34.7989 19.4857 37.2756 19.6899 39.9659C19.9175 42.9637 22.3506 45.392 25.349 45.6148C26.5071 45.7011 27.6572 45.4628 28.6751 44.9259C29.2315 44.6328 29.8697 44.6326 30.4256 44.926C31.3085 45.3908 32.2914 45.6331 33.2891 45.632C33.4429 45.632 33.5974 45.6263 33.7516 45.6149C36.7502 45.3923 39.1832 42.9638 39.411 39.966C39.6152 37.2756 38.0339 34.7989 35.6169 33.805ZM36.562 39.7495C36.4405 41.35 35.1415 42.6466 33.5402 42.7655C32.9176 42.8126 32.3013 42.6851 31.7586 42.3986C31.0781 42.0394 30.3201 41.8517 29.5506 41.8517C28.781 41.8517 28.0231 42.0394 27.3425 42.3986C26.7999 42.6849 26.1849 42.8123 25.5608 42.7655C23.9597 42.6467 22.6606 41.3501 22.5391 39.7495C22.4143 38.1062 23.5296 36.6124 25.1331 36.2746C25.4588 36.206 25.7503 36.0259 25.9573 35.7653C26.1643 35.5047 26.2739 35.18 26.2671 34.8473L26.2648 34.775C26.2648 32.9632 27.7386 31.4893 29.5505 31.4893C31.3623 31.4893 32.8362 32.9632 32.8362 34.7698L32.834 34.8473C32.827 35.1801 32.9366 35.5048 33.1436 35.7654C33.3507 36.026 33.6423 36.2061 33.968 36.2746C35.5717 36.6124 36.6868 38.1062 36.562 39.7495Z" fill="#F1CDB3"/>
<path d="M29.5506 25.7751C32.1108 25.7751 34.1934 23.6924 34.1934 21.1322C34.1934 18.572 32.1108 16.4893 29.5506 16.4893C26.9904 16.4893 24.9077 18.5721 24.9077 21.1322C24.9077 23.6923 26.9906 25.7751 29.5506 25.7751ZM29.5506 19.3465C30.5353 19.3465 31.3363 20.1475 31.3363 21.1322C31.3363 22.1169 30.5353 22.9179 29.5506 22.9179C28.5659 22.9179 27.7649 22.1169 27.7649 21.1322C27.7649 20.1475 28.566 19.3465 29.5506 19.3465Z" fill="#F1CDB3"/>
<path d="M24.1935 26.6561C24.1935 24.0959 22.1107 22.0132 19.5506 22.0132C16.9905 22.0132 14.9078 24.096 14.9078 26.6561C14.9078 29.2162 16.9904 31.2989 19.5506 31.2989C22.1108 31.2989 24.1935 29.2162 24.1935 26.6561ZM19.5506 28.4418C18.5659 28.4418 17.7649 27.6408 17.7649 26.6561C17.7649 25.6714 18.5659 24.8704 19.5506 24.8704C20.5353 24.8704 21.3363 25.6714 21.3363 26.6561C21.3363 27.6408 20.5352 28.4418 19.5506 28.4418Z" fill="#F1CDB3"/>
<path d="M39.5506 22.0131C36.9904 22.0131 34.9077 24.0959 34.9077 26.656C34.9077 29.216 36.9906 31.2988 39.5506 31.2988C42.1107 31.2988 44.1934 29.2162 44.1934 26.656C44.1934 24.0958 42.1107 22.0131 39.5506 22.0131ZM39.5506 28.4418C38.5658 28.4418 37.7649 27.6408 37.7649 26.6561C37.7649 25.6714 38.5659 24.8704 39.5506 24.8704C40.5353 24.8704 41.3363 25.6714 41.3363 26.6561C41.3363 27.6408 40.5353 28.4418 39.5506 28.4418Z" fill="#F1CDB3"/>
<path d="M24.6934 50.1322H24.3465C23.5576 50.1322 22.918 50.7719 22.918 51.5607C22.918 52.3496 23.5577 52.9892 24.3465 52.9892H24.6934C25.4823 52.9892 26.1219 52.3495 26.1219 51.5607C26.122 50.7719 25.4824 50.1322 24.6934 50.1322Z" fill="#F1CDB3"/>
</svg>

<svg width="60" height="60" fill="none" xmlns="http://www.w3.org/2000/svg"><path d="M52.898 25.498l-5.755-15.75v-8.32C47.143.64 46.503 0 45.714 0H14.286c-.79 0-1.429.64-1.429 1.429v8.318l-5.755 15.75a16.918 16.918 0 0 0-1.03 5.825v23.755A4.93 4.93 0 0 0 10.994 60h38.01a4.929 4.929 0 0 0 4.923-4.923V31.322c0-1.993-.346-3.953-1.03-5.824zM15.714 2.858h28.572V8.57H15.714V2.857zm35.358 47.274H30.907a1.429 1.429 0 0 0 0 2.857H51.07v2.087c0 1.14-.926 2.067-2.066 2.067h-38.01a2.069 2.069 0 0 1-2.066-2.067V31.322c-.001-1.652.289-3.292.857-4.844l5.499-15.05h29.43l5.5 15.05c.567 1.552.857 3.191.856 4.844v18.81z" fill="#F1CDB3"/><path d="M35.617 33.805a6.153 6.153 0 0 0-6.066-5.173 6.153 6.153 0 0 0-6.067 5.173 6.176 6.176 0 0 0-3.794 6.16c.227 2.999 2.66 5.427 5.659 5.65a6.141 6.141 0 0 0 3.326-.69 1.852 1.852 0 0 1 1.75.001 6.132 6.132 0 0 0 3.327.689c2.998-.223 5.431-2.651 5.659-5.649a6.176 6.176 0 0 0-3.794-6.161zm.945 5.944a3.294 3.294 0 0 1-3.022 3.017 3.281 3.281 0 0 1-1.781-.367 4.73 4.73 0 0 0-4.416 0 3.283 3.283 0 0 1-1.782.367 3.294 3.294 0 0 1-3.022-3.017 3.3 3.3 0 0 1 2.594-3.474 1.428 1.428 0 0 0 1.134-1.428l-.002-.072a3.29 3.29 0 0 1 3.285-3.286 3.288 3.288 0 0 1 3.286 3.28l-.002.078a1.428 1.428 0 0 0 1.134 1.428 3.3 3.3 0 0 1 2.594 3.474zm-7.011-13.974a4.648 4.648 0 0 0 4.642-4.643 4.648 4.648 0 0 0-4.642-4.643 4.648 4.648 0 0 0-4.643 4.643 4.648 4.648 0 0 0 4.643 4.643zm0-6.428c.984 0 1.785.8 1.785 1.785 0 .985-.8 1.786-1.785 1.786a1.788 1.788 0 0 1-1.786-1.786c0-.985.801-1.786 1.786-1.786zm-5.357 7.31a4.648 4.648 0 0 0-4.643-4.644 4.648 4.648 0 0 0-4.643 4.643A4.648 4.648 0 0 0 19.55 31.3a4.648 4.648 0 0 0 4.643-4.643zm-4.643 1.785a1.788 1.788 0 0 1-1.786-1.786c0-.985.8-1.786 1.786-1.786.984 0 1.785.801 1.785 1.786s-.8 1.786-1.785 1.786zm20-6.429a4.648 4.648 0 0 0-4.643 4.643 4.648 4.648 0 0 0 4.643 4.643 4.648 4.648 0 0 0 4.642-4.643 4.648 4.648 0 0 0-4.642-4.643zm0 6.429a1.788 1.788 0 0 1-1.786-1.786c0-.985.8-1.786 1.786-1.786.984 0 1.785.801 1.785 1.786s-.8 1.786-1.785 1.786zm-14.858 21.69h-.347a1.429 1.429 0 0 0 0 2.857h.347a1.429 1.429 0 0 0 0-2.857z" fill="#F1CDB3"/></svg>
